**harm	**harte	**timestamp	**phrase	**leadinstrument	**kern
*M4/4	*M4/4	*	*	*	*
*d:	*d:	*	*	*	*d:
1r;	N	0	.	r	1r;
=1	=1	=1	=1	=1	=1
*>A_intro	*>A_intro	*>A_intro	*>A_intro	*>A_intro	*>A_intro
1r	N	0.697	newline	drums	1r
=2	=2	=2	=2	=2	=2
1i	D:min	2.206	newline	synth bass	1D 1f 1a
=3	=3	=3	=3	=3	=3
4i	D:min	3.577	.	synth bass	4D 4f 4a
2.-VII	C:maj	3.92	.	synth bass	2C 2e 2g
=4	=4	=4	=4	=4	=4
2.v7	A:min7	4.948	.	synth bass	2A 2cc 2ee 2gg
4-VI	B-:maj	5.976	.	synth bass	4B-- 4dd- 4ff-
=5	=5	=5	=5	=5	=5
1-VI	B-:maj	6.319	.	synth bass	1B-- 1dd- 1ff-
=6	=6	=6	=6	=6	=6
1i	D:min	7.69	newline	synth bass	1D 1f 1a
=7	=7	=7	=7	=7	=7
4i	D:min	9.03	.	synth bass	4D 4f 4a
2.-VII	C:maj	9.365	.	synth bass	2C 2e 2g
=8	=8	=8	=8	=8	=8
2.v7	A:min7	10.37	.	synth bass	2A 2cc 2ee 2gg
4-VI	B-:maj	11.375	.	synth bass	4B-- 4dd- 4ff-
=9	=9	=9	=9	=9	=9
1-VI	B-:maj	11.71	.	synth bass	1B-- 1dd- 1ff-
=10	=10	=10	=10	=10	=10
1i	D:min	13.05	newline	spoken	1D 1f 1a
=11	=11	=11	=11	=11	=11
4i	D:min	14.364	.	spoken	4D 4f 4a
2.-VII	C:maj	14.692	.	spoken	2C 2e 2g
=12	=12	=12	=12	=12	=12
2.v7	A:min7	15.678	.	spoken	2A 2cc 2ee 2gg
4-VI	B-:maj	16.663	.	spoken	4B-- 4dd- 4ff-
=13	=13	=13	=13	=13	=13
1-VI	B-:maj	16.992	.	spoken	1B-- 1dd- 1ff-
=14	=14	=14	=14	=14	=14
1i	D:min	18.306	newline	spoken	1D 1f 1a
=15	=15	=15	=15	=15	=15
4i	D:min	19.64	.	spoken	4D 4f 4a
2.-VII	C:maj	19.973	.	spoken	2C 2e 2g
=16	=16	=16	=16	=16	=16
2.v7	A:min7	20.974	.	spoken	2A 2cc 2ee 2gg
4-VI	B-:maj	21.974	.	spoken	4B-- 4dd- 4ff-
=17	=17	=17	=17	=17	=17
1-VI	B-:maj	22.308	.	spoken	1B-- 1dd- 1ff-
=18	=18	=18	=18	=18	=18
1i	D:min	23.642	newline	spoken	1D 1f 1a
=19	=19	=19	=19	=19	=19
4i	D:min	24.956	.	spoken	4D 4f 4a
2.-VII	C:maj	25.284	.	spoken	2C 2e 2g
=20	=20	=20	=20	=20	=20
2.v7	A:min7	26.27	.	spoken	2A 2cc 2ee 2gg
4-VI	B-:maj	27.255	.	spoken	4B-- 4dd- 4ff-
=21	=21	=21	=21	=21	=21
1-VI	B-:maj	27.584	.	spoken	1B-- 1dd- 1ff-
=22	=22	=22	=22	=22	=22
1i	D:min	28.898	newline	voice	1D 1f 1a
=23	=23	=23	=23	=23	=23
4i	D:min	30.224	.	voice	4D 4f 4a
2.-VII	C:maj	30.556	.	voice	2C 2e 2g
=24	=24	=24	=24	=24	=24
2.v7	A:min7	31.55	.	voice	2A 2cc 2ee 2gg
4-VI	B-:maj	32.545	.	voice	4B-- 4dd- 4ff-
=25	=25	=25	=25	=25	=25
1-VI	B-:maj	32.877	.	voice	1B-- 1dd- 1ff-
=26	=26	=26	=26	=26	=26
*>_chorus	*>_chorus	*>_chorus	*>_chorus	*>_chorus	*>_chorus
1i	D:min	34.203	newline	voice	1D 1f 1a
=27	=27	=27	=27	=27	=27
4i	D:min	35.537	.	voice	4D 4f 4a
2.-VII	C:maj	35.87	.	voice	2C 2e 2g
=28	=28	=28	=28	=28	=28
2.v7	A:min7	36.871	.	voice	2A 2cc 2ee 2gg
4-VI	B-:maj	37.871	.	voice	4B-- 4dd- 4ff-
=29	=29	=29	=29	=29	=29
1-VI	B-:maj	38.204	.	voice	1B-- 1dd- 1ff-
=30	=30	=30	=30	=30	=30
1i	D:min	39.538	newline	voice	1D 1f 1a
=31	=31	=31	=31	=31	=31
4i	D:min	40.854	.	voice	4D 4f 4a
2.-VII	C:maj	41.183	.	voice	2C 2e 2g
=32	=32	=32	=32	=32	=32
2.v7	A:min7	42.17	.	voice	2A 2cc 2ee 2gg
4-VI	B-:maj	43.157	.	voice	4B-- 4dd- 4ff-
=33	=33	=33	=33	=33	=33
1-VI	B-:maj	43.487	.	voice	1B-- 1dd- 1ff-
=34	=34	=34	=34	=34	=34
1i	D:min	44.803	newline	voice	1D 1f 1a
=35	=35	=35	=35	=35	=35
4i	D:min	46.126	.	voice	4D 4f 4a
2.-VII	C:maj	46.457	.	voice	2C 2e 2g
=36	=36	=36	=36	=36	=36
2.v7	A:min7	47.45	.	voice	2A 2cc 2ee 2gg
4-VI	B-:maj	48.443	.	voice	4B-- 4dd- 4ff-
=37	=37	=37	=37	=37	=37
1-VI	B-:maj	48.774	.	voice	1B-- 1dd- 1ff-
=38	=38	=38	=38	=38	=38
*>_refrain	*>_refrain	*>_refrain	*>_refrain	*>_refrain	*>_refrain
1-VI7	B-:maj7	50.098	newline	voice	1B-- 1dd- 1ff- 1aa
=39	=39	=39	=39	=39	=39
1-VI7	B-:maj7	51.421	.	voice	1B-- 1dd- 1ff- 1aa
=40	=40	=40	=40	=40	=40
1-VI7	B-:maj7	52.744	.	voice	1B-- 1dd- 1ff- 1aa
=41	=41	=41	=41	=41	=41
1-VI7	B-:maj7	54.067	.	voice	1B-- 1dd- 1ff- 1aa
=42	=42	=42	=42	=42	=42
*>B_interlude	*>B_interlude	*>B_interlude	*>B_interlude	*>B_interlude	*>B_interlude
1i	D:min	55.39	newline	synth	1D 1f 1a
=43	=43	=43	=43	=43	=43
1i	D:min	56.698	.	synth	1D 1f 1a
=44	=44	=44	=44	=44	=44
1-VIIe	C:maj/2	58.006	.	synth	1C 1e 1g
=45	=45	=45	=45	=45	=45
1-VIIe	C:maj/2	59.314	.	synth	1C 1e 1g
=46	=46	=46	=46	=46	=46
1-VIb	B-:maj/3	60.622	newline	synth	1b-- 1D- 1ff-
=47	=47	=47	=47	=47	=47
1-VIb	B-:maj/3	61.957	.	synth	1b-- 1D- 1ff-
=48	=48	=48	=48	=48	=48
1i	D:1	63.292	.	synth	1D 1f 1a
=49	=49	=49	=49	=49	=49
1i	D:1	64.627	.	synth	1D 1f 1a
=50	=50	=50	=50	=50	=50
*>C_verse	*>C_verse	*>C_verse	*>C_verse	*>C_verse	*>C_verse
1i	D:min	65.961	newline	voice	1D 1f 1a
=51	=51	=51	=51	=51	=51
1i	D:min	67.302	.	voice	1D 1f 1a
=52	=52	=52	=52	=52	=52
1-VII	C:maj	68.643	.	voice	1C 1e 1g
=53	=53	=53	=53	=53	=53
1-VII	C:maj	69.984	.	voice	1C 1e 1g
=54	=54	=54	=54	=54	=54
1-VI	B-:maj	71.325	newline	voice	1B-- 1dd- 1ff-
=55	=55	=55	=55	=55	=55
1-VI	B-:maj	72.638	.	voice	1B-- 1dd- 1ff-
=56	=56	=56	=56	=56	=56
1iv	G:min	73.951	.	voice	1G 1b- 1dd
=57	=57	=57	=57	=57	=57
1iv	G:min	75.264	.	voice	1G 1b- 1dd
=58	=58	=58	=58	=58	=58
1i	D:min	76.577	newline	voice	1D 1f 1a
=59	=59	=59	=59	=59	=59
1i	D:min	77.907	.	voice	1D 1f 1a
=60	=60	=60	=60	=60	=60
1-VII	C:maj	79.237	.	voice	1C 1e 1g
=61	=61	=61	=61	=61	=61
1-VII	C:maj	80.567	.	voice	1C 1e 1g
=62	=62	=62	=62	=62	=62
1-VI	B-:maj	81.897	newline	voice	1B-- 1dd- 1ff-
=63	=63	=63	=63	=63	=63
1-VI	B-:maj	83.216	.	voice	1B-- 1dd- 1ff-
=64	=64	=64	=64	=64	=64
1iv	G:min	84.534	.	voice	1G 1b- 1dd
=65	=65	=65	=65	=65	=65
1iv	G:min	85.852	.	voice	1G 1b- 1dd
=66	=66	=66	=66	=66	=66
1i	D:min	87.171	newline	voice	1D 1f 1a
=67	=67	=67	=67	=67	=67
1i	D:min	88.491	.	voice	1D 1f 1a
=68	=68	=68	=68	=68	=68
1-VII	C:maj	89.811	.	voice	1C 1e 1g
=69	=69	=69	=69	=69	=69
1-VII	C:maj	91.131	.	voice	1C 1e 1g
=70	=70	=70	=70	=70	=70
1-VI	B-:maj	92.451	newline	voice	1B-- 1dd- 1ff-
=71	=71	=71	=71	=71	=71
1-VI	B-:maj	93.777	.	voice	1B-- 1dd- 1ff-
=72	=72	=72	=72	=72	=72
1iv	G:min	95.102	.	voice	1G 1b- 1dd
=73	=73	=73	=73	=73	=73
1iv	G:min	96.428	.	voice	1G 1b- 1dd
=74	=74	=74	=74	=74	=74
1iv	G:sus4(b7,9)	97.754	newline	guitar	1G 1b- 1dd
=75	=75	=75	=75	=75	=75
1iv	G:sus4(b7,9)	99.09	.	guitar	1G 1b- 1dd
=76	=76	=76	=76	=76	=76
1iv	G:sus4(b7,9)	100.426	.	guitar	1G 1b- 1dd
=77	=77	=77	=77	=77	=77
1iv	G:sus4(b7,9)	101.761	.	guitar	1G 1b- 1dd
=78	=78	=78	=78	=78	=78
*>A_chorus	*>A_chorus	*>A_chorus	*>A_chorus	*>A_chorus	*>A_chorus
1i	D:min	103.097	newline	voice	1D 1f 1a
=79	=79	=79	=79	=79	=79
4i	D:min	104.415	.	voice	4D 4f 4a
2.-VII	C:maj	104.745	.	voice	2C 2e 2g
=80	=80	=80	=80	=80	=80
2.v7	A:min7	105.733	.	voice	2A 2cc 2ee 2gg
4-VI	B-:maj	106.722	.	voice	4B-- 4dd- 4ff-
=81	=81	=81	=81	=81	=81
1-VI	B-:maj	107.051	.	voice	1B-- 1dd- 1ff-
=82	=82	=82	=82	=82	=82
1i	D:min	108.369	newline	voice	1D 1f 1a
=83	=83	=83	=83	=83	=83
4i	D:min	109.704	.	voice	4D 4f 4a
2.-VII	C:maj	110.037	.	voice	2C 2e 2g
=84	=84	=84	=84	=84	=84
2.v7	A:min7	111.038	.	voice	2A 2cc 2ee 2gg
4-VI	B-:maj	112.039	.	voice	4B-- 4dd- 4ff-
=85	=85	=85	=85	=85	=85
1-VI	B-:maj	112.372	.	voice	1B-- 1dd- 1ff-
=86	=86	=86	=86	=86	=86
1i	D:min	113.707	newline	voice	1D 1f 1a
=87	=87	=87	=87	=87	=87
4i	D:min	115.022	.	voice	4D 4f 4a
2.-VII	C:maj	115.351	.	voice	2C 2e 2g
=88	=88	=88	=88	=88	=88
2.v7	A:min7	116.338	.	voice	2A 2cc 2ee 2gg
4-VI	B-:maj	117.325	.	voice	4B-- 4dd- 4ff-
=89	=89	=89	=89	=89	=89
1-VI	B-:maj	117.654	.	voice	1B-- 1dd- 1ff-
=90	=90	=90	=90	=90	=90
1i	D:min	118.969	newline	bass	1D 1f 1a
=91	=91	=91	=91	=91	=91
4i	D:min	120.291	.	bass	4D 4f 4a
2.-VII	C:maj	120.622	.	bass	2C 2e 2g
=92	=92	=92	=92	=92	=92
2.v7	A:min7	121.613	.	bass	2A 2cc 2ee 2gg
4-VI	B-:maj	122.605	.	bass	4B-- 4dd- 4ff-
=93	=93	=93	=93	=93	=93
1-VI	B-:maj	122.935	.	bass	1B-- 1dd- 1ff-
=94	=94	=94	=94	=94	=94
1i	D:min	124.258	newline	voice	1D 1f 1a
=95	=95	=95	=95	=95	=95
4i	D:min	125.592	.	voice	4D 4f 4a
2.-VII	C:maj	125.926	.	voice	2C 2e 2g
=96	=96	=96	=96	=96	=96
2.v7	A:min7	126.926	.	voice	2A 2cc 2ee 2gg
4-VI	B-:maj	127.927	.	voice	4B-- 4dd- 4ff-
=97	=97	=97	=97	=97	=97
1-VI	B-:maj	128.261	.	voice	1B-- 1dd- 1ff-
=98	=98	=98	=98	=98	=98
1i	D:min	129.595	newline	voice	1D 1f 1a
=99	=99	=99	=99	=99	=99
4i	D:min	130.901	.	voice	4D 4f 4a
2.-VII	C:maj	131.228	.	voice	2C 2e 2g
=100	=100	=100	=100	=100	=100
2.v7	A:min7	132.207	.	voice	2A 2cc 2ee 2gg
4-VI	B-:maj	133.187	.	voice	4B-- 4dd- 4ff-
=101	=101	=101	=101	=101	=101
1-VI	B-:maj	133.513	.	voice	1B-- 1dd- 1ff-
=102	=102	=102	=102	=102	=102
1i	D:min	134.819	newline	voice	1D 1f 1a
=103	=103	=103	=103	=103	=103
4i	D:min	136.145	.	voice	4D 4f 4a
2.-VII	C:maj	136.476	.	voice	2C 2e 2g
=104	=104	=104	=104	=104	=104
2.v7	A:min7	137.47	.	voice	2A 2cc 2ee 2gg
4-VI	B-:maj	138.464	.	voice	4B-- 4dd- 4ff-
=105	=105	=105	=105	=105	=105
1-VI	B-:maj	138.796	.	voice	1B-- 1dd- 1ff-
=106	=106	=106	=106	=106	=106
*>_refrain	*>_refrain	*>_refrain	*>_refrain	*>_refrain	*>_refrain
1-VI7	B-:maj7	140.121	newline	voice	1B-- 1dd- 1ff- 1aa
=107	=107	=107	=107	=107	=107
1-VI7	B-:maj7	141.447	.	voice	1B-- 1dd- 1ff- 1aa
=108	=108	=108	=108	=108	=108
1-VI7	B-:maj7	142.773	.	voice	1B-- 1dd- 1ff- 1aa
=109	=109	=109	=109	=109	=109
1-VI7	B-:maj7	144.099	.	voice	1B-- 1dd- 1ff- 1aa
=110	=110	=110	=110	=110	=110
*>B_interlude	*>B_interlude	*>B_interlude	*>B_interlude	*>B_interlude	*>B_interlude
1i	D:min	145.425	newline	synth	1D 1f 1a
=111	=111	=111	=111	=111	=111
1i	D:min	146.751	.	synth	1D 1f 1a
=112	=112	=112	=112	=112	=112
1-VIIe	C:maj/2	148.077	.	synth	1C 1e 1g
=113	=113	=113	=113	=113	=113
1-VIIe	C:maj/2	149.403	.	synth	1C 1e 1g
=114	=114	=114	=114	=114	=114
*>C_verse	*>C_verse	*>C_verse	*>C_verse	*>C_verse	*>C_verse
1i	D:min	150.729	newline	voice	1D 1f 1a
=115	=115	=115	=115	=115	=115
1i	D:min	152.054	.	voice	1D 1f 1a
=116	=116	=116	=116	=116	=116
1-VII	C:maj	153.379	.	voice	1C 1e 1g
=117	=117	=117	=117	=117	=117
1-VII	C:maj	154.703	.	voice	1C 1e 1g
=118	=118	=118	=118	=118	=118
1-VI	B-:maj	156.028	newline	voice	1B-- 1dd- 1ff-
=119	=119	=119	=119	=119	=119
1-VI	B-:maj	157.36	.	voice	1B-- 1dd- 1ff-
=120	=120	=120	=120	=120	=120
1iv	G:min	158.693	.	voice	1G 1b- 1dd
=121	=121	=121	=121	=121	=121
1iv	G:min	160.026	.	voice	1G 1b- 1dd
=122	=122	=122	=122	=122	=122
1i	D:min	161.358	newline	voice	1D 1f 1a
=123	=123	=123	=123	=123	=123
1i	D:min	162.682	.	voice	1D 1f 1a
=124	=124	=124	=124	=124	=124
1-VII	C:maj	164.005	.	voice	1C 1e 1g
=125	=125	=125	=125	=125	=125
1-VII	C:maj	165.328	.	voice	1C 1e 1g
=126	=126	=126	=126	=126	=126
1-VI	B-:maj	166.652	newline	voice	1B-- 1dd- 1ff-
=127	=127	=127	=127	=127	=127
1-VI	B-:maj	167.962	.	voice	1B-- 1dd- 1ff-
=128	=128	=128	=128	=128	=128
1iv	G:min	169.272	.	voice	1G 1b- 1dd
=129	=129	=129	=129	=129	=129
1iv	G:min	170.582	.	voice	1G 1b- 1dd
=130	=130	=130	=130	=130	=130
1i	D:min	171.892	newline	voice	1D 1f 1a
=131	=131	=131	=131	=131	=131
1i	D:min	173.218	.	voice	1D 1f 1a
=132	=132	=132	=132	=132	=132
1-VII	C:maj	174.544	.	voice	1C 1e 1g
=133	=133	=133	=133	=133	=133
1-VII	C:maj	175.87	.	voice	1C 1e 1g
=134	=134	=134	=134	=134	=134
1-VI	B-:maj	177.196	newline	voice	1B-- 1dd- 1ff-
=135	=135	=135	=135	=135	=135
1-VI	B-:maj	178.538	.	voice	1B-- 1dd- 1ff-
=136	=136	=136	=136	=136	=136
1iv	G:min	179.88	.	voice	1G 1b- 1dd
=137	=137	=137	=137	=137	=137
1iv	G:min	181.222	.	voice	1G 1b- 1dd
=138	=138	=138	=138	=138	=138
1iv	G:sus4(b7,9)	182.564	newline	guitar	1G 1b- 1dd
=139	=139	=139	=139	=139	=139
1iv	G:sus4(b7,9)	183.886	.	guitar	1G 1b- 1dd
=140	=140	=140	=140	=140	=140
1iv	G:sus4(b7,9)	185.208	.	guitar	1G 1b- 1dd
=141	=141	=141	=141	=141	=141
1iv	G:sus4(b7,9)	186.53	.	guitar	1G 1b- 1dd
=142	=142	=142	=142	=142	=142
*>A_chorus	*>A_chorus	*>A_chorus	*>A_chorus	*>A_chorus	*>A_chorus
1i	D:min	187.852	newline	voice	1D 1f 1a
=143	=143	=143	=143	=143	=143
4i	D:min	189.182	.	voice	4D 4f 4a
2.-VII	C:maj	189.515	.	voice	2C 2e 2g
=144	=144	=144	=144	=144	=144
2.v7	A:min7	190.513	.	voice	2A 2cc 2ee 2gg
4-VI	B-:maj	191.51	.	voice	4B-- 4dd- 4ff-
=145	=145	=145	=145	=145	=145
1-VI	B-:maj	191.843	.	voice	1B-- 1dd- 1ff-
=146	=146	=146	=146	=146	=146
1i	D:min	193.173	newline	voice	1D 1f 1a
=147	=147	=147	=147	=147	=147
4i	D:min	194.505	.	voice	4D 4f 4a
2.-VII	C:maj	194.838	.	voice	2C 2e 2g
=148	=148	=148	=148	=148	=148
2.v7	A:min7	195.837	.	voice	2A 2cc 2ee 2gg
4-VI	B-:maj	196.835	.	voice	4B-- 4dd- 4ff-
=149	=149	=149	=149	=149	=149
1-VI	B-:maj	197.168	.	voice	1B-- 1dd- 1ff-
=150	=150	=150	=150	=150	=150
1i	D:min	198.5	newline	voice	1D 1f 1a
=151	=151	=151	=151	=151	=151
4i	D:min	199.822	.	voice	4D 4f 4a
2.-VII	C:maj	200.153	.	voice	2C 2e 2g
=152	=152	=152	=152	=152	=152
2.v7	A:min7	201.144	.	voice	2A 2cc 2ee 2gg
4-VI	B-:maj	202.136	.	voice	4B-- 4dd- 4ff-
=153	=153	=153	=153	=153	=153
1-VI	B-:maj	202.466	.	voice	1B-- 1dd- 1ff-
=154	=154	=154	=154	=154	=154
1i	D:min	203.788	newline	bass	1D 1f 1a
=155	=155	=155	=155	=155	=155
4i	D:min	205.092	.	bass	4D 4f 4a
2.-VII	C:maj	205.418	.	bass	2C 2e 2g
=156	=156	=156	=156	=156	=156
2.v7	A:min7	206.396	.	bass	2A 2cc 2ee 2gg
4-VI	B-:maj	207.374	.	bass	4B-- 4dd- 4ff-
=157	=157	=157	=157	=157	=157
1-VI	B-:maj	207.7	.	bass	1B-- 1dd- 1ff-
=158	=158	=158	=158	=158	=158
1i	D:min	209.004	newline	voice	1D 1f 1a
=159	=159	=159	=159	=159	=159
4i	D:min	210.352	.	voice	4D 4f 4a
2.-VII	C:maj	210.689	.	voice	2C 2e 2g
=160	=160	=160	=160	=160	=160
2.v7	A:min7	211.701	.	voice	2A 2cc 2ee 2gg
4-VI	B-:maj	212.712	.	voice	4B-- 4dd- 4ff-
=161	=161	=161	=161	=161	=161
1-VI	B-:maj	213.05	.	voice	1B-- 1dd- 1ff-
=162	=162	=162	=162	=162	=162
1i	D:min	214.398	newline	voice	1D 1f 1a
=163	=163	=163	=163	=163	=163
4i	D:min	215.701	.	voice	4D 4f 4a
2.-VII	C:maj	216.027	.	voice	2C 2e 2g
=164	=164	=164	=164	=164	=164
2.v7	A:min7	217.005	.	voice	2A 2cc 2ee 2gg
4-VI	B-:maj	217.982	.	voice	4B-- 4dd- 4ff-
=165	=165	=165	=165	=165	=165
1-VI	B-:maj	218.308	.	voice	1B-- 1dd- 1ff-
=166	=166	=166	=166	=166	=166
1i	D:min	219.612	newline	voice	1D 1f 1a
=167	=167	=167	=167	=167	=167
4i	D:min	220.934	.	voice	4D 4f 4a
2.-VII	C:maj	221.264	.	voice	2C 2e 2g
=168	=168	=168	=168	=168	=168
2.v7	A:min7	222.256	.	voice	2A 2cc 2ee 2gg
4-VI	B-:maj	223.247	.	voice	4B-- 4dd- 4ff-
=169	=169	=169	=169	=169	=169
1-VI	B-:maj	223.578	.	voice	1B-- 1dd- 1ff-
=170	=170	=170	=170	=170	=170
*>_refrain	*>_refrain	*>_refrain	*>_refrain	*>_refrain	*>_refrain
1-VI7	B-:maj7	224.9	newline	voice	1B-- 1dd- 1ff- 1aa
=171	=171	=171	=171	=171	=171
1-VI7	B-:maj7	226.226	.	voice	1B-- 1dd- 1ff- 1aa
=172	=172	=172	=172	=172	=172
1-VI7	B-:maj7	227.552	.	voice	1B-- 1dd- 1ff- 1aa
=173	=173	=173	=173	=173	=173
1-VI7	B-:maj7	228.878	.	voice	1B-- 1dd- 1ff- 1aa
=174	=174	=174	=174	=174	=174
*>B_outro_fadeout	*>B_outro_fadeout	*>B_outro_fadeout	*>B_outro_fadeout	*>B_outro_fadeout	*>B_outro_fadeout
1i	D:min	230.204	newline	synth	1D 1f 1a
=175	=175	=175	=175	=175	=175
1i	D:min	231.536	.	synth	1D 1f 1a
=176	=176	=176	=176	=176	=176
1-VIIe	C:maj/2	232.868	.	synth	1C 1e 1g
=177	=177	=177	=177	=177	=177
1-VIIe	C:maj/2	234.2	.	synth	1C 1e 1g
=178	=178	=178	=178	=178	=178
1-VIb	B-:maj/3	235.532	newline	synth	1b-- 1D- 1ff-
=179	=179	=179	=179	=179	=179
1-VIb	B-:maj/3	236.847	.	synth	1b-- 1D- 1ff-
=180	=180	=180	=180	=180	=180
1i	D:1	238.163	.	synth	1D 1f 1a
=181	=181	=181	=181	=181	=181
1i	D:1	239.478	.	synth	1D 1f 1a
=182	=182	=182	=182	=182	=182
1i	D:min	240.794	newline	synth	1D 1f 1a
=183	=183	=183	=183	=183	=183
1i	D:min	242.117	.	synth	1D 1f 1a
=184	=184	=184	=184	=184	=184
1-VIIe	C:maj/2	243.439	.	synth	1C 1e 1g
=185	=185	=185	=185	=185	=185
1-VIIe	C:maj/2	244.762	.	synth	1C 1e 1g
=186	=186	=186	=186	=186	=186
1-VIb	B-:maj/3	246.085	newline	synth	1b-- 1D- 1ff-
=187	=187	=187	=187	=187	=187
1-VIb	B-:maj/3	246.727	.	synth	1b-- 1D- 1ff-
=188	=188	=188	=188	=188	=188
1i	D:1	247.369	.	synth	1D 1f 1a
=189	=189	=189	=189	=189	=189
1i	D:1	248.011	.	synth	1D 1f 1a
1r;	N	248.653	.	r	1r;
1r;	N	251.409	.	r	1r;
*-	*-	*-	*-	*-	*-
!!!OTL: Love Is A Battlefield
!!!COC: Pat Benatar
!!!BillboardChartDate: 1983/10/01
!!!BillboardPeak: 5
!!!BillboardWeeksOnChart: 22
!!!SampleTargetRank: 63
!!!SampleActualRank: 62
!!!SampleID#: 0741
!!!RDF**harmony: **recip + pitch class of root + harmonic quality
!!!RDF**harte: Chris Harte's syntax, used by MIREX
!!!RDF**phrase: newline = linebreak in original McGill transcription
!!!RDF**timestamp: McGill audio timestamp in seconds
!!!RDF**leadinstrument: original McGill primary instrumentation annotation
!!!RDT: 2017/01/12/
!!!ENC: Nathaniel Condit-Schultz
!!!EST: Awating manual error checking and editing.
